X:1
T:Title
T:Nameless Generation Transcribed for: Lil Bao-zi 
T:Composer
C:Composer
%%score 1 { 2 | 3 }
L:1/8
Q:1/4=85
M:4/4
K:Db
V:1 treble nm="Piano" snm="Pno."
V:2 treble nm="Piano"
V:3 bass 
V:1
"^\n" z8 | z8 | z8 | z8 | z8 | z8 | z8 | z8 | z8 | z8 | z8 | z8 | z8 | z8 | z8 | z8 | z8 | z8 | %18
 z8 | z8 | z8 | z8 | z8 | z8 | z8 | z8 | z8 | z8 | z8 | z8 | z8 | z8 | z8 | z8 | z8 | z8 | z8 | %37
 z8 | z8 | z8 | z8 | z8 | z8 | z8 | z8 | z8 | z8 | z8 | z8 | z8 | z8 | z8 | z8 | z8 | z8 | z8 | %56
 z8 | z8 | z8 | z8 | z8 | z8 | z8 | z8 | z8 | z8 | z8 | z8 | z8 | z8 | z8 | z8 | z8 | z8 | z8 | %75
 z8 | z8 | z8 | z8 | z8 | z8 | z8 | z8 | z8 | z8 | z8 | z8 | z8 | z8 |] %89
V:2
 z FFF FEDD | z FFF FEDD | z FFF FEDA- | AF E6 | z FFF FEDD | z FFF FEDA- | A F4 AAA- | A F6 z | %8
 z FFF FEDD | z FFF FEDD | z FFF FEDA- | AF E6 | z FFF FEDD | z FFF FEDA- | A F4 FFF- | F E6 z | %16
 z z z2 z e ed/d/- | d2 da/a/- a2 ed/c/- | cc ca/a/- a2 ed/d/- | d2 de/e/- eded | agfd- dd aa/a/- | %21
 a2 ad/d/- dd aa/a/- | a2 ad/d/- d2 dd | eded e2 de- | edfe z e ed/d/- | d2 da/a/- a2 ed/c/- | %26
 ccc =a3 ed/d/- | d2 ed eded | agfd- dd aa/a/- | a2 ad/d/- dd aa/a/- | a2 ad/d/- d2 ed | %31
 eded e d2 e- | eded fedd- | d4 z4 | z8 | z FFF FEDD | z FFF FEDD | z FFF FEDA- | AF E6 | %39
 z FFF FEDD | z FFF FEDA- | A F4 FFF- | F E6 z | z z z2 z e ed/d/- | d2 da/a/- a2 ed/c/- | %45
 cc ca/a/- a2 ed/d/- | d2 de/e/- eded | agfd- dd aa/a/- | a2 ad/d/- dd aa/a/- | a2 ad/d/- d2 dd | %50
 eded e2 de- | edfe z e ed/d/ | z8 | z8 | z8 | z8 | z8 | z8 | z8 | z8 | z8 | z z z2 z e ed/d/- | %62
 d2 da/a/- a2 ed/c/- | cc c=a/=a/- a2 ed/d/- | d2 ed eded | agfd- dd aa/a/- | a2 ad/d/- dd aa/a/- | %67
 a2 ad/d/- d2 Bd | eded edfa | z8 | z z z2 z e ed/d/- | d2 da/a/- a2 ed/c/- | ccc =a3 ed/d/- | %73
 d2 ed eded | agfd- dd aa/a/- | a2 ad/d/- dd aa/a/- | a2 ad/d/- d2 ed | eded ed z e- | eded fedd- | %79
 d8 | z8 | z8 | z8 | z8 | z8 | z8 | z8 | z8 | z8 |] %89
V:3
 B,,F,B,!8va(! A4 z!8va)! | G,,D,G,!8va(! A4 z!8va)! | D,,A,,D, ^C4 z | A,,E, C6 | %4
 B,,F,B,!8va(! A4 z!8va)! | G,,D,G,!8va(! A4 z!8va)! | A,,D,^C A,2 z2 z | %7
 A,,E,C D2!8va(! A3!8va)! | B,,F,B,!8va(! A4 z!8va)! | G,,D,G,!8va(! A4 z!8va)! | %10
 A,,D,^C A,2 z2 z | A,,E, C6 | B,,F,B,!8va(! A4 z!8va)! | G,,D,G,!8va(! A4 z!8va)! | %14
 A,,D,^C A,2 z2 z | A,,E,C D2 z3 | z8 | D,A,DA, D,A,DA, | F,,C,F,C, F,,C,F,C, | %19
 B,,F,B,F, B,,F,B,F, | A,,E,A,E, A,,E,A,E, | G,,D,G,D, G,,D,G,D, | F,,C, A,2 B,,F, B,2 | %23
 E,=G,B,E B,=G,E, z | G,,D, G,2 A,,E, A,2 | D,A,DA, D,A,DA, | F,,C,F,C, F,,C,F,C, | %27
 B,,F,B,F, B,,F,B,F, | A,,E,A,E, A,,E,A,E, | G,,D,G,D, G,,D,G,D, | F,,C, A,2 B,,F, B,2 | %31
 E,=G,B,E B,=G,E, z | G,,D, G,2 A,,E,A,[D,A,D]- | [D,A,D]4 z4 | z8 | B,,F,B,!8va(! A4 z!8va)! | %36
 G,,D,G,!8va(! A4 z!8va)! | A,,D,^C A,2 z2 z | A,,E, C6 | B,,F,B,!8va(! A4 z!8va)! | %40
 G,,D,G,!8va(! A4 z!8va)! | A,,D,^C A,2 z2 z | A,,E,C D2 z3 | z8 | D,A,DA, D,A,DA, | %45
 F,,C,F,C, F,,C,F,C, | B,,F,B,F, B,,F,B,F, | A,,E,A,E, A,,E,A,E, | G,,D,G,D, G,,D,G,D, | %49
 F,,C, A,2 B,,F, B,2 | E,=G,B,E B,=G,E, z | G,,D, G,2 A,,E, A,2 | z8 | z8 | z8 | z8 | z8 | z8 | %58
 z8 | z8 | z8 | z8 | [D,A,D]6 z2 | [F,,C,F,]6 z2 | [B,,F,B,]6 z2 | [A,,E,A,]6 z2 | [G,,D,G,]6 z2 | %67
 [F,,C,F,]4 [B,,F,B,]4 | [E,=G,B,E]4 z4 | z8 | z8 | D,A,DA, D,A,DA, | F,,C,F,C, F,,C,F,C, | %73
 B,,F,B,F, B,,F,B,F, | A,,E,A,E, A,,E,A,E, | G,,D,G,D, G,,D,G,D, | F,,C, A,2 B,,F, B,2 | %77
 E,=G,B,E B,=G,E, z | G,,D, G,2 A,,E,A,[D,A,D]- | [D,A,D]8 | z8 | z8 | z8 | z8 | z8 | z8 | z8 | %87
 z8 | z8 |] %89

